lib/preview_tmp/nrk-logo-nrk-tegnspraak-symbol.svg

<svg width="64" height="22" viewBox="0 0 64 22" fill="none" xmlns="http://www.w3.org/2000/svg">
<path d="M0 17.6666V3.66792H4.59339V17.6666H0ZM10.8428 5.89589L13.4844 17.6666H8.45737L5.30307 3.66792H8.12254C8.76907 3.65953 9.39641 3.88744 9.88691 4.30877C10.3782 4.71242 10.7158 5.27279 10.8428 5.89589ZM14.1744 17.6666V3.66792H18.7678V17.6666H14.1744ZM22.2372 8.99143C21.7422 8.99625 21.2552 8.86675 20.828 8.61677C20.4064 8.37312 20.0563 8.02293 19.8127 7.60134C19.5624 7.17403 19.4329 6.68687 19.4378 6.19168C19.4321 5.69952 19.5618 5.21526 19.8127 4.79181C20.0589 4.3748 20.4086 4.02842 20.828 3.78625C21.2553 3.53657 21.7423 3.40708 22.2372 3.41159C22.7292 3.4063 23.2133 3.5359 23.6369 3.78625C24.0521 4.03054 24.3981 4.37663 24.6424 4.79181C24.893 5.21537 25.0226 5.69956 25.0172 6.19168C25.0218 6.68683 24.8923 7.17391 24.6424 7.60134C24.4007 8.02108 24.0542 8.37097 23.6369 8.61677C23.2133 8.86762 22.7289 8.99725 22.2366 8.99143H22.2372ZM25.7269 17.6666V3.66792H30.3207V17.6666H25.7269ZM36.136 11.3179C36.1489 11.3315 36.2475 11.4925 36.4317 11.801C36.6159 12.1094 36.8558 12.5038 37.1513 12.984C37.447 13.464 37.759 13.9733 38.0874 14.512C38.4157 15.0507 38.7247 15.5601 39.0143 16.0401C39.3028 16.52 39.6313 17.0622 40 17.6666H34.9531C34.6375 17.154 34.3515 16.6907 34.0952 16.2766C33.8389 15.8626 33.5665 15.4157 33.2778 14.9359C32.9884 14.4566 32.7024 13.9899 32.4196 13.536C32.1368 13.0821 31.8938 12.6845 31.6905 12.3432C31.4863 12.0017 31.3449 11.7716 31.2663 11.6531C31.0713 11.359 30.9559 11.0193 30.9315 10.6673C30.951 10.3294 31.0597 10.0028 31.2466 9.72061C31.3254 9.58916 31.47 9.35581 31.6803 9.02063C31.8906 8.68545 32.137 8.28787 32.4196 7.82782C32.7021 7.36777 32.9882 6.89785 33.2778 6.41808C33.5674 5.93832 33.8398 5.48809 34.0952 5.06747C34.3519 4.64729 34.6379 4.18066 34.9531 3.6676H40L36.0962 10.0361C35.9754 10.2251 35.9073 10.443 35.8991 10.6673C35.9121 10.9027 35.9942 11.129 36.1353 11.3179H36.136Z" fill="white"/>
<path fill-rule="evenodd" clip-rule="evenodd" d="M60.2091 18.2091C62.2095 16.2087 63.3333 13.4956 63.3333 10.6667C63.3333 7.83769 62.2095 5.12458 60.2091 3.1242C58.2088 1.12381 55.4956 0 52.6667 0C49.8377 0 47.1246 1.12381 45.1242 3.1242C43.1238 5.12458 42 7.83769 42 10.6667C42 13.4956 43.1238 16.2087 45.1242 18.2091C47.1246 20.2095 49.8377 21.3333 52.6667 21.3333C55.4956 21.3333 58.2088 20.2095 60.2091 18.2091ZM56.5963 5.96078L53.1766 7.81244L53.178 7.8101C53.13 7.83627 53.0943 7.88035 53.0786 7.93272C53.0629 7.9851 53.0686 8.04155 53.0943 8.08978L53.1076 8.11411C53.1337 8.16218 53.1778 8.19794 53.2303 8.21357C53.2827 8.22919 53.3392 8.22339 53.3873 8.19744L55.8186 6.88344C55.9338 6.81724 56.0705 6.79926 56.1989 6.83342C56.3273 6.86757 56.4369 6.95109 56.504 7.06577C56.5632 7.18467 56.5731 7.32218 56.5314 7.44832C56.4897 7.57445 56.3998 7.67898 56.2813 7.73911L53.8753 9.0401C53.8211 9.06712 53.7797 9.11448 53.7602 9.17186C53.7407 9.22924 53.7447 9.29199 53.7713 9.34644C53.8023 9.39859 53.8527 9.43636 53.9115 9.45153C53.9702 9.4667 54.0326 9.45805 54.085 9.42744L54.744 9.07077L54.804 9.03744L55.8886 8.45078C56.0038 8.38453 56.1405 8.36649 56.269 8.40058C56.3974 8.43467 56.5071 8.51813 56.5743 8.63278C56.6336 8.75173 56.6434 8.88928 56.6017 9.01547C56.56 9.14165 56.4701 9.24624 56.3516 9.30644L54.7323 10.1821L54.472 10.3208C54.4122 10.159 54.2975 10.0233 54.1478 9.93744C53.9982 9.8516 53.8232 9.82104 53.6533 9.85111L50.7043 10.4138C50.6185 10.4343 50.5355 10.4653 50.4573 10.5061C50.2387 10.3091 50.0557 10.0758 49.9166 9.81644C49.7181 9.44958 49.6111 9.04022 49.6046 8.62314C49.5982 8.20606 49.6925 7.79358 49.8796 7.42077C49.8816 7.41744 49.8816 7.4141 49.8816 7.41077L51.1176 4.65644C51.1689 4.53387 51.2666 4.43658 51.3894 4.38581C51.5122 4.33503 51.6501 4.3349 51.773 4.38544C51.8925 4.44401 51.984 4.54739 52.0277 4.67311C52.0714 4.79882 52.0637 4.93671 52.0063 5.05678L51.6063 5.94744L52.253 5.59777C52.2578 5.59513 52.2626 5.5935 52.2674 5.59187C52.273 5.59001 52.2785 5.58815 52.284 5.58477C52.2884 5.58204 52.2926 5.579 52.2967 5.57597C52.3021 5.57198 52.3076 5.56799 52.3136 5.56477L54.9316 4.14878C55.0468 4.08249 55.1835 4.06445 55.3119 4.09862C55.4403 4.13278 55.55 4.21636 55.617 4.33111C55.6762 4.45001 55.6861 4.58751 55.6444 4.71365C55.6027 4.83978 55.5128 4.94431 55.3943 5.00444L52.504 6.56744C52.4559 6.59366 52.4201 6.63788 52.4045 6.69041C52.3888 6.74294 52.3947 6.79952 52.4206 6.84777L52.4333 6.87178C52.4595 6.9199 52.5037 6.95567 52.5563 6.97129C52.6088 6.9869 52.6654 6.98109 52.7136 6.95511L56.1336 5.10544C56.2488 5.03921 56.3854 5.02118 56.5138 5.05527C56.6422 5.08936 56.7519 5.17281 56.819 5.28744C56.8782 5.40634 56.8881 5.54385 56.8464 5.66999C56.8047 5.79612 56.7148 5.90065 56.5963 5.96078ZM52.673 12.8731L56.1583 14.5851C56.2788 14.6404 56.3729 14.7412 56.4195 14.8654C56.466 14.9896 56.4615 15.1272 56.407 15.2481C56.3445 15.3652 56.2382 15.4527 56.1114 15.4918C55.9846 15.5309 55.8475 15.5183 55.73 15.4568L52.246 13.7448C52.1969 13.7208 52.1403 13.7172 52.0886 13.7348C52.0369 13.7524 51.9942 13.7898 51.97 13.8388L51.9576 13.8634C51.9338 13.9126 51.9303 13.9692 51.9479 14.0209C51.9656 14.0726 52.003 14.1152 52.052 14.1394L54.531 15.3574C54.6515 15.4128 54.7453 15.5137 54.7918 15.6379C54.8383 15.7622 54.8338 15.8998 54.7793 16.0208C54.7168 16.1377 54.6106 16.2253 54.4839 16.2643C54.3571 16.3033 54.2201 16.2907 54.1026 16.2291L51.6506 15.0248C51.5972 14.9962 51.5347 14.9899 51.4767 15.0073C51.4187 15.0246 51.3699 15.0642 51.341 15.1174C51.3166 15.1729 51.3151 15.2358 51.3368 15.2923C51.3585 15.3489 51.4017 15.3946 51.457 15.4194L53.2946 16.3224C53.4151 16.3778 53.5088 16.4786 53.5553 16.6028C53.6018 16.727 53.5974 16.8645 53.543 16.9854C53.4805 17.1025 53.3744 17.1901 53.2476 17.2291C53.1209 17.2682 52.9838 17.2556 52.8663 17.1941L51.2166 16.3834C51.2166 16.3834 49.7206 15.6358 49.6833 15.6024C49.1376 15.2617 48.7378 14.7306 48.5613 14.1119C48.3847 13.4933 48.444 12.8312 48.7276 12.2538C48.9112 11.8799 49.1823 11.5559 49.5179 11.3093C49.8535 11.0626 50.2437 10.9007 50.6553 10.8371C50.657 10.8368 50.6584 10.8359 50.6598 10.8351C50.6614 10.8341 50.663 10.8331 50.665 10.8331L53.6213 10.2448C53.6854 10.23 53.7518 10.228 53.8167 10.2389C53.8816 10.2498 53.9437 10.2734 53.9994 10.3084C54.0552 10.3434 54.1035 10.389 54.1415 10.4426C54.1796 10.4963 54.2067 10.5569 54.2213 10.6211C54.2428 10.7522 54.2116 10.8864 54.1345 10.9946C54.0575 11.1028 53.9409 11.1762 53.81 11.1988L52.854 11.3891L53.513 11.7128C53.5174 11.715 53.5213 11.7178 53.5252 11.7207C53.53 11.7242 53.535 11.7278 53.5413 11.7304C53.546 11.7324 53.5506 11.734 53.5552 11.7355C53.5618 11.7378 53.5682 11.74 53.5746 11.7431L56.2413 13.0538C56.3618 13.1092 56.4555 13.21 56.502 13.3341C56.5485 13.4583 56.5441 13.5958 56.4896 13.7168C56.4271 13.8338 56.3208 13.9213 56.194 13.9603C56.0672 13.9993 55.9302 13.9867 55.8126 13.9251L52.8673 12.4781C52.8181 12.4541 52.7615 12.4506 52.7097 12.4683C52.6579 12.4859 52.6152 12.5234 52.591 12.5724L52.579 12.5971C52.5551 12.6462 52.5515 12.7028 52.5691 12.7545C52.5867 12.8062 52.6241 12.8488 52.673 12.8731Z" fill="white"/>
</svg>

<svg xmlns="http://www.w3.org/2000/svg" viewBox="0 0 64 22"><path fill="#fff" d="M0 17.667v-14h4.593v14H0ZM10.843 5.896l2.641 11.77H8.457L5.303 3.669h2.82a2.655 2.655 0 0 1 1.764.64c.491.404.829.965.956 1.588Zm3.331 11.77V3.669h4.594v13.999h-4.594Zm8.063-8.675a2.737 2.737 0 0 1-1.409-.374A2.778 2.778 0 0 1 19.813 7.6a2.735 2.735 0 0 1-.375-1.41 2.685 2.685 0 0 1 .375-1.4 2.812 2.812 0 0 1 3.824-1.005c.415.245.761.59 1.005 1.006.251.423.38.908.375 1.4.005.495-.125.982-.375 1.41a2.8 2.8 0 0 1-1.005 1.015c-.424.25-.908.38-1.4.374Zm3.49 8.676v-14h4.594v14h-4.594Zm10.409-6.35c.013.014.111.175.296.484.184.308.424.703.72 1.183a384.573 384.573 0 0 1 1.862 3.056c.289.48.617 1.022.986 1.627h-5.047l-.858-1.39c-.256-.414-.529-.861-.817-1.341-.29-.48-.576-.946-.858-1.4a71.148 71.148 0 0 1-.73-1.193 21.119 21.119 0 0 0-.424-.69 2.04 2.04 0 0 1-.334-.986c.019-.338.128-.664.315-.946.078-.132.223-.365.433-.7a216.7 216.7 0 0 0 1.598-2.603l.817-1.35.858-1.4H40l-3.904 6.368c-.12.19-.189.407-.197.631.013.236.095.462.236.65h.001Z"/><path fill="#fff" fill-rule="evenodd" d="M60.21 18.21A10.667 10.667 0 1 0 45.123 3.123 10.667 10.667 0 0 0 60.21 18.21ZM56.595 5.96l-3.42 1.852.002-.002a.207.207 0 0 0-.084.28l.014.024a.207.207 0 0 0 .28.083l2.43-1.314a.503.503 0 0 1 .686.183.504.504 0 0 1-.223.673L53.875 9.04a.23.23 0 0 0-.104.306.23.23 0 0 0 .314.081l.659-.356.06-.034 1.085-.586a.504.504 0 0 1 .685.182.504.504 0 0 1-.222.673l-1.62.876-.26.139a.736.736 0 0 0-.819-.47l-2.949.563c-.086.02-.169.051-.247.092a2.592 2.592 0 0 1-.578-3.085c.003-.004.003-.007.003-.01l1.236-2.755a.503.503 0 0 1 .655-.27.505.505 0 0 1 .233.67l-.4.891.647-.35a.087.087 0 0 1 .014-.005.076.076 0 0 0 .03-.016.141.141 0 0 1 .017-.011l2.618-1.416a.503.503 0 0 1 .685.182.504.504 0 0 1-.223.673l-2.89 1.563a.207.207 0 0 0-.083.28l.012.025a.207.207 0 0 0 .28.083l3.42-1.85a.503.503 0 0 1 .686.182.504.504 0 0 1-.223.674Zm-3.923 6.913 3.485 1.712a.503.503 0 0 1 .249.663.503.503 0 0 1-.677.209l-3.484-1.712a.207.207 0 0 0-.276.094l-.012.024a.208.208 0 0 0 .094.276l2.479 1.218a.503.503 0 0 1 .248.664.503.503 0 0 1-.676.208l-2.452-1.204a.229.229 0 0 0-.31.092.23.23 0 0 0 .116.302l1.838.903a.503.503 0 0 1 .248.663.502.502 0 0 1-.677.21l-1.65-.812s-1.495-.747-1.533-.78a2.597 2.597 0 0 1-.165-4.294 2.587 2.587 0 0 1 1.137-.472l.005-.002.005-.002 2.956-.588a.5.5 0 0 1 .6.376.503.503 0 0 1-.411.578l-.956.19.659.324a.082.082 0 0 1 .012.008l.016.01.014.005.02.007 2.666 1.31a.503.503 0 0 1 .249.664.503.503 0 0 1-.677.208l-2.946-1.447a.207.207 0 0 0-.276.094l-.012.025a.207.207 0 0 0 .094.276Z" clip-rule="evenodd"/></svg>
